packages/tokens/icons/longTail/size24Px.svg

<svg viewBox="0 0 24 24" fill="none" xmlns="http://www.w3.org/2000/svg" width="1em" height="1em"><path d="M3.5 4.5L3.5 17.5C3.5 18.6046 4.39543 19.5 5.5 19.5L20.5 19.5" stroke="currentColor" stroke-linecap="round"/><path d="M20.5 16.5H13.0355C11.0069 16.5 9.2869 15.0083 9 13V13" stroke="currentColor" stroke-linecap="round" stroke-dasharray="1 2"/><path d="M3.5 13.5L20.5 13.5" stroke="currentColor" stroke-linecap="round"/><path d="M3.5 6.5H5.11346C6.51043 6.5 7.72251 7.46423 8.03664 8.82542L9 13" stroke="currentColor" stroke-linecap="round"/></svg>

<svg xmlns="http://www.w3.org/2000/svg" fill="none" viewBox="0 0 24 24" width="1em" height="1em"><path stroke="currentColor" stroke-linecap="round" d="M3.5 4.5v13a2 2 0 0 0 2 2h15"/><path stroke="currentColor" stroke-dasharray="1 2" stroke-linecap="round" d="M20.5 16.5h-7.464A4.077 4.077 0 0 1 9 13v0"/><path stroke="currentColor" stroke-linecap="round" d="M3.5 13.5h17m-17-7h1.613a3 3 0 0 1 2.924 2.325L9 13"/></svg>
